X: 2061
T: The White Cockatoo
B: australian traditional tunes wiki
B: kameruka bush dance
M:4/4
L:1/8
R: Reel
Q: 1/4=100
K:G
V:1 
G|:"G"B2B2 cBAG|"G"B2d2d3G|B2B2 cBAG|"D7"B2A2A3A|
"G"B2B2 cBAG|B2d2 "Em"g3e|"D"d4 c3A|1 "G"B2G2G2A2:|2"G"B2G2G4||
|:"Em"B2e2 edef|g2e2e3d|"D"A2d2 d^cde|f2d2d3A|
"Em"B2e2 edef|g2e2e2 ga|"Em"b2b2 "D"a2a2|"Em"g2e2e4:|
% abcbook-tune_id 6343edec5a51f0097bcbb635


% abcbook-boost 0
% abcbook-tablature 
% abcbook-transpose 
% abcbook-lastupdated 1665396366289
% abcbook-soundfonts 
% abcbook-repeats 3


